icons/1_Primary/GOV.UK.svg

<svg xmlns="http://www.w3.org/2000/svg" width="1024" height="1024" fill="none">
   <g clip-path="url(#a)">
      <path fill="#728DBE" d="M512 1024c282.77 0 512-229.23 512-512S794.77 0 512 0 0 229.23 0 512s229.23 512 512 512Z"/>
      <path fill="#fff" d="M349.18 414.95c13.89 6 30.56-.79 36.12-14.69a27.608 27.608 0 0 0-.006-21.534 27.608 27.608 0 0 0-15.474-14.976 28.002 28.002 0 0 0-36.12 15.48c-5.56 13.89 1.19 29.77 15.48 35.72Zm-63.5 36.91c14.29 6 31-.79 36.51-14.69 6-14.29-.79-31-15.48-36.12a27.417 27.417 0 0 0-21.223-.037 27.44 27.44 0 0 0-14.897 15.117 27.798 27.798 0 0 0 15.09 35.73Zm-18.26 70.25a27.6 27.6 0 1 0 20.64-51.2c-13.89-6-30.16 1.19-36.12 15.08a28.091 28.091 0 0 0 15.48 36.12Zm152-84.94a27.615 27.615 0 0 0 10.71 2.294 27.614 27.614 0 0 0 19.872-8.128 27.609 27.609 0 0 0 8.035-19.91 27.61 27.61 0 0 0-8.665-19.644A27.592 27.592 0 0 0 440.07 386c-14.29-6-30.16 1.19-36.12 15.08-5.16 14.26 1.59 30.54 15.48 36.09h-.01ZM675 414.95c-14.29 6-31-.79-36.12-14.69-6-14.29.79-31 15.08-36.51a27.669 27.669 0 0 1 21.531-.367 27.678 27.678 0 0 1 17.347 25.965 27.69 27.69 0 0 1-2.29 10.744 27.694 27.694 0 0 1-15.588 14.858h.04Zm63.11 36.91c-14.29 6-30.56-.79-36.12-14.69-6-14.29.79-31 14.69-36.12a27.863 27.863 0 0 1 21.388-.045 27.876 27.876 0 0 1 15.122 15.125c5.98 13.87-1.19 29.77-15.05 35.73h-.03Zm18.65 70.25c-14.29 6-31-.79-36.51-15.08a27.167 27.167 0 0 1 6.236-30.33 27.164 27.164 0 0 1 9.244-5.79c14.29-6 30.56 1.19 36.51 15.08a28.81 28.81 0 0 1-15.45 36.12h-.03Zm-152.38-84.94c-14.29 6-31-.79-36.51-15.08-5.51-14.29.79-30.56 15.48-36.12 14.29-6 30.56 1.19 36.51 15.08 5.56 14.29-1.19 30.57-15.48 36.12Zm-77.79-71.84L561.92 384v-52l-35.32 11.11a15.163 15.163 0 0 0-3.57-3.57l14.29-44.45h-50.8l13.89 44.45a30.32 30.32 0 0 0-3.57 3.57L461.9 332v52l34.93-18.65a30.32 30.32 0 0 0 3.57 3.57L480.55 430v.4A39.845 39.845 0 0 0 479 440a32.836 32.836 0 0 0 27.78 32.15h.79c1.19 0 2.78.4 4 .4a12.237 12.237 0 0 0 4-.4h.79c15.88-2.38 28.18-16.27 28.18-32.15a25.309 25.309 0 0 0-1.59-9.53V430l-20.24-61.12c1.5-.77 2.69-2.36 3.88-3.55ZM511.91 663.4c67.08 0 130.18 4.37 186.94 12.7 15.88-67.08 35.32-106 55.57-133l-38.1-13.49c4 19.45 4.37 28.58 0 40.48-6-5.56-11.91-17.07-16.67-34.53L681 596.72c11.11-7.94 19.84-12.7 29.77-13.1-17.46 37.31-39.69 47.23-54 44.45-17.07-3.18-25-18.26-22.23-31.35 4-18.65 22.62-23.42 31.75-2 17.07-34.53-11.91-45.25-30.16-34.93 28.18-28.58 31.35-53.58 8.33-83.75-31.75 24.21-32.15 48.82-17.86 82.55-18.65-21.43-48-9.92-37.71 24.61 13.49-20.64 31.35-7.94 28.58 12.3-2.38 17.07-25.4 31-53.58 28.58-40.88-3.57-43.26-31.75-44.45-54.77 9.92-2 28.18 7.14 43.66 29l5.16-65.09c-16.27 17.46-31.75 21-48.82 21.43 5.56-17.46 31.75-46 31.75-46h-81s25.4 28.58 31.35 46c-16.67-.4-31.75-4-48.82-21.43l5.56 65.09c15.48-21.83 33.74-30.56 43.26-29-1.19 23-3.57 50.8-44.06 54.77-28.48 2.41-51.15-11.48-53.48-28.55-2.78-19.84 15.08-32.94 28.18-12.3 10.72-34.53-18.26-46-37.31-24.61 14.69-33.74 14.29-58.34-18.26-82.55-23 30.16-19.84 55.17 8.73 83.75-18.65-10.32-47.23.4-30.56 34.93 9.13-21.83 28.18-16.67 32.15 2 2.78 13.1-5.16 28.18-22.62 31.35-13.89 2.78-35.72-7.14-53.58-44.45 9.92.4 18.65 5.16 29.77 13.1l-18.71-61.15c-4.76 17.46-10.72 28.58-17.07 34.53-4.37-11.91-3.57-21 0-40.48L267 543.14c19.84 27.39 39.29 66.28 55.57 133 58.76-8.37 122.26-12.74 189.34-12.74Z"/>
   </g>
   <defs>
      <clipPath id="a">
         <path fill="#fff" d="M0 0h1024v1024H0z"/>
      </clipPath>
   </defs>
</svg>

<svg width="1024" height="1024" viewBox="0 0 1024 1024" fill="none" xmlns="http://www.w3.org/2000/svg">
<g clip-path="url(#clip0_2_2325)">
<path d="M512 1024C794.77 1024 1024 794.77 1024 512C1024 229.23 794.77 0 512 0C229.23 0 0 229.23 0 512C0 794.77 229.23 1024 512 1024Z" fill="#728DBE"/>
<path d="M349.18 414.95C363.07 420.95 379.74 414.16 385.3 400.26C386.742 396.853 387.485 393.191 387.484 389.492C387.483 385.793 386.738 382.131 385.294 378.726C383.85 375.32 381.736 372.239 379.078 369.666C376.42 367.094 373.271 365.082 369.82 363.75C362.973 361.071 355.346 361.193 348.588 364.089C341.83 366.985 336.482 372.424 333.7 379.23C328.14 393.12 334.89 409 349.18 414.95ZM285.68 451.86C299.97 457.86 316.68 451.07 322.19 437.17C328.19 422.88 321.4 406.17 306.71 401.05C303.352 399.634 299.746 398.902 296.102 398.896C292.458 398.889 288.849 399.609 285.487 401.013C282.124 402.417 279.075 404.477 276.517 407.072C273.959 409.668 271.944 412.747 270.59 416.13C267.954 422.878 268.056 430.388 270.875 437.061C273.693 443.735 279.005 449.044 285.68 451.86ZM267.42 522.11C274.209 524.847 281.808 524.775 288.544 521.909C295.281 519.044 300.603 513.619 303.34 506.83C306.077 500.04 306.005 492.442 303.139 485.705C300.274 478.969 294.849 473.647 288.06 470.91C274.17 464.91 257.9 472.1 251.94 485.99C249.285 492.839 249.419 500.456 252.312 507.207C255.206 513.959 260.629 519.309 267.42 522.11ZM419.42 437.17C422.801 438.642 426.442 439.422 430.13 439.464C433.817 439.505 437.475 438.807 440.889 437.411C444.302 436.015 447.4 433.95 450.002 431.336C452.603 428.722 454.655 425.614 456.035 422.194C457.415 418.775 458.095 415.113 458.037 411.426C457.978 407.739 457.181 404.101 455.693 400.727C454.205 397.353 452.055 394.311 449.372 391.782C446.689 389.253 443.526 387.286 440.07 386C425.78 380 409.91 387.19 403.95 401.08C398.79 415.34 405.54 431.62 419.43 437.17H419.42ZM675 414.95C660.71 420.95 644 414.16 638.88 400.26C632.88 385.97 639.67 369.26 653.96 363.75C657.342 362.253 660.99 361.45 664.688 361.387C668.386 361.324 672.06 362.003 675.491 363.383C678.923 364.764 682.042 366.818 684.667 369.424C687.291 372.031 689.366 375.137 690.769 378.559C692.173 381.981 692.876 385.649 692.838 389.348C692.8 393.046 692.021 396.7 690.548 400.092C689.074 403.484 686.935 406.547 684.258 409.099C681.581 411.651 678.419 413.64 674.96 414.95H675ZM738.11 451.86C723.82 457.86 707.55 451.07 701.99 437.17C695.99 422.88 702.78 406.17 716.68 401.05C720.066 399.634 723.699 398.902 727.369 398.894C731.04 398.886 734.675 399.603 738.068 401.005C741.46 402.406 744.542 404.463 747.138 407.059C749.733 409.654 751.789 412.737 753.19 416.13C759.17 430 752 445.9 738.14 451.86H738.11ZM756.76 522.11C742.47 528.11 725.76 521.32 720.25 507.03C718.808 503.652 718.065 500.016 718.068 496.343C718.07 492.67 718.818 489.035 720.265 485.659C721.712 482.283 723.828 479.235 726.486 476.7C729.144 474.165 732.289 472.195 735.73 470.91C750.02 464.91 766.29 472.1 772.24 485.99C774.713 492.848 774.493 500.389 771.626 507.092C768.759 513.795 763.457 519.161 756.79 522.11H756.76ZM604.38 437.17C590.09 443.17 573.38 436.38 567.87 422.09C562.36 407.8 568.66 391.53 583.35 385.97C597.64 379.97 613.91 387.16 619.86 401.05C625.42 415.34 618.67 431.62 604.38 437.17ZM526.59 365.33L561.92 384V332L526.6 343.11C525.618 341.729 524.411 340.522 523.03 339.54L537.32 295.09H486.52L500.41 339.54C499.123 340.629 497.928 341.823 496.84 343.11L461.9 332V384L496.83 365.35C497.918 366.637 499.113 367.831 500.4 368.92L480.55 430V430.4C479.643 433.525 479.123 436.749 479 440C479.07 447.781 481.902 455.285 486.99 461.173C492.078 467.061 499.091 470.951 506.78 472.15H507.57C508.76 472.15 510.35 472.55 511.57 472.55C512.916 472.638 514.268 472.503 515.57 472.15H516.36C532.24 469.77 544.54 455.88 544.54 440C544.627 436.751 544.087 433.515 542.95 430.47V430L522.71 368.88C524.21 368.11 525.4 366.52 526.59 365.33ZM511.91 663.4C578.99 663.4 642.09 667.77 698.85 676.1C714.73 609.02 734.17 570.1 754.42 543.1L716.32 529.61C720.32 549.06 720.69 558.19 716.32 570.09C710.32 564.53 704.41 553.02 699.65 535.56L681 596.72C692.11 588.78 700.84 584.02 710.77 583.62C693.31 620.93 671.08 630.85 656.77 628.07C639.7 624.89 631.77 609.81 634.54 596.72C638.54 578.07 657.16 573.3 666.29 594.72C683.36 560.19 654.38 549.47 636.13 559.79C664.31 531.21 667.48 506.21 644.46 476.04C612.71 500.25 612.31 524.86 626.6 558.59C607.95 537.16 578.6 548.67 588.89 583.2C602.38 562.56 620.24 575.26 617.47 595.5C615.09 612.57 592.07 626.5 563.89 624.08C523.01 620.51 520.63 592.33 519.44 569.31C529.36 567.31 547.62 576.45 563.1 598.31L568.26 533.22C551.99 550.68 536.51 554.22 519.44 554.65C525 537.19 551.19 508.65 551.19 508.65H470.19C470.19 508.65 495.59 537.23 501.54 554.65C484.87 554.25 469.79 550.65 452.72 533.22L458.28 598.31C473.76 576.48 492.02 567.75 501.54 569.31C500.35 592.31 497.97 620.11 457.48 624.08C429 626.49 406.33 612.6 404 595.53C401.22 575.69 419.08 562.59 432.18 583.23C442.9 548.7 413.92 537.23 394.87 558.62C409.56 524.88 409.16 500.28 376.61 476.07C353.61 506.23 356.77 531.24 385.34 559.82C366.69 549.5 338.11 560.22 354.78 594.75C363.91 572.92 382.96 578.08 386.93 596.75C389.71 609.85 381.77 624.93 364.31 628.1C350.42 630.88 328.59 620.96 310.73 583.65C320.65 584.05 329.38 588.81 340.5 596.75L321.79 535.6C317.03 553.06 311.07 564.18 304.72 570.13C300.35 558.22 301.15 549.13 304.72 529.65L267 543.14C286.84 570.53 306.29 609.42 322.57 676.14C381.33 667.77 444.83 663.4 511.91 663.4Z" fill="white"/>
</g>
<defs>
<clipPath id="clip0_2_2325">
<rect width="1024" height="1024" fill="white"/>
</clipPath>
</defs>
</svg>
